icons/folder-src-open.svg

<?xml version="1.0" encoding="UTF-8" standalone="no"?>
<svg
   xmlns:dc="http://purl.org/dc/elements/1.1/"
   xmlns:cc="http://creativecommons.org/ns#"
   xmlns:rdf="http://www.w3.org/1999/02/22-rdf-syntax-ns#"
   xmlns:svg="http://www.w3.org/2000/svg"
   xmlns="http://www.w3.org/2000/svg"
   xmlns:sodipodi="http://sodipodi.sourceforge.net/DTD/sodipodi-0.dtd"
   xmlns:inkscape="http://www.inkscape.org/namespaces/inkscape"
   width="100%"
   height="100%"
   viewBox="0 0 24 24"
   version="1.1"
   xml:space="preserve"
   style="fill-rule:evenodd;clip-rule:evenodd;stroke-linejoin:round;stroke-miterlimit:1.41421;"
   id="svg15"
   sodipodi:docname="folder-src-open.svg"
   inkscape:version="0.92.1 r15371"><metadata
     id="metadata21"><rdf:RDF><cc:Work
         rdf:about=""><dc:format>image/svg+xml</dc:format><dc:type
           rdf:resource="http://purl.org/dc/dcmitype/StillImage" /></cc:Work></rdf:RDF></metadata><defs
     id="defs19" /><sodipodi:namedview
     pagecolor="#ffffff"
     bordercolor="#666666"
     borderopacity="1"
     objecttolerance="10"
     gridtolerance="10"
     guidetolerance="10"
     inkscape:pageopacity="0"
     inkscape:pageshadow="2"
     inkscape:window-width="1920"
     inkscape:window-height="986"
     id="namedview17"
     showgrid="false"
     inkscape:zoom="9.8333333"
     inkscape:cx="12"
     inkscape:cy="12"
     inkscape:window-x="-11"
     inkscape:window-y="-11"
     inkscape:window-maximized="1"
     inkscape:current-layer="svg15" /><path
     id="path2"
     d="M19,20L4,20C2.89,20 2,19.1 2,18L2,6C2,4.89 2.89,4 4,4L10,4L12,6L19,6C20.097,6 21,6.903 21,8L4,8L4,18L6.14,10L23.21,10L20.93,18.5C20.7,19.37 19.92,20 19,20Z"
     style="fill:rgb(56,142,60);fill-rule:nonzero;" /><g
     style="clip-rule:evenodd;fill-rule:evenodd;stroke-linejoin:round;stroke-miterlimit:1.41420996"
     transform="matrix(0.70678215,0,0,0.7067816,2.0645214,-0.224455)"
     id="g5"><path
       d="m 19.146,30.989 c -0.07,0 -0.139,-0.009 -0.207,-0.025 C 18.42,30.812 18.102,30.28 18.213,29.751 L 20.922,15.32 c 0.049,-0.279 0.209,-0.525 0.444,-0.683 0.206,-0.136 0.46,-0.18 0.7,-0.122 0.519,0.152 0.837,0.684 0.727,1.213 L 20.077,30.16 c -0.048,0.278 -0.208,0.524 -0.442,0.681 -0.145,0.096 -0.315,0.147 -0.489,0.148 z"
       style="fill:#81c784;fill-rule:nonzero"
       id="path3"
       inkscape:connector-curvature="0" /></g><g
     style="clip-rule:evenodd;fill-rule:evenodd;stroke-linejoin:round;stroke-miterlimit:1.41420996"
     transform="matrix(0.70678215,0,0,0.7067816,2.0645214,-0.224455)"
     id="g9"><path
       d="M 24.578,28.944 H 24.51 C 24.244,28.92 24,28.783 23.842,28.567 c -0.317,-0.432 -0.274,-1.036 0.1,-1.419 L 28.6,22.595 23.962,18.356 c -0.385,-0.372 -0.445,-0.975 -0.141,-1.416 0.152,-0.222 0.394,-0.368 0.661,-0.4 0.259,-0.028 0.518,0.059 0.709,0.237 l 5.47,5 c 0.386,0.372 0.448,0.974 0.144,1.416 -0.042,0.059 -0.089,0.114 -0.142,0.163 l -5.447,5.324 c -0.17,0.168 -0.399,0.263 -0.638,0.264 z"
       style="fill:#81c784;fill-rule:nonzero"
       id="path7"
       inkscape:connector-curvature="0" /></g><g
     style="clip-rule:evenodd;fill-rule:evenodd;stroke-linejoin:round;stroke-miterlimit:1.41420996"
     transform="matrix(0.70678215,0,0,0.7067816,2.0645214,-0.224455)"
     id="g13"><path
       d="M 16.423,28.947 C 16.183,28.945 15.954,28.849 15.784,28.68 L 10.332,23.353 C 10.282,23.307 10.238,23.256 10.2,23.2 9.894,22.76 9.954,22.157 10.341,21.786 l 5.471,-5 c 0.187,-0.178 0.443,-0.265 0.7,-0.238 0.269,0.031 0.511,0.177 0.665,0.4 0.305,0.441 0.246,1.044 -0.14,1.417 L 12.4,22.6 l 4.659,4.551 c 0.377,0.382 0.42,0.988 0.1,1.419 -0.158,0.216 -0.402,0.354 -0.669,0.377 z"
       style="fill:#81c784;fill-rule:nonzero"
       id="path11"
       inkscape:connector-curvature="0" /></g></svg>

<?xml version="1.0" encoding="UTF-8" standalone="no"?>
<!DOCTYPE svg PUBLIC "-//W3C//DTD SVG 1.1//EN" "http://www.w3.org/Graphics/SVG/1.1/DTD/svg11.dtd">
<svg width="100%" height="100%" viewBox="0 0 24 24" version="1.1" xmlns="http://www.w3.org/2000/svg" xmlns:xlink="http://www.w3.org/1999/xlink" xml:space="preserve" style="fill-rule:evenodd;clip-rule:evenodd;stroke-linejoin:round;stroke-miterlimit:1.41421;">
    <path id="path2" d="M19,20L4,20C2.89,20 2,19.1 2,18L2,6C2,4.89 2.89,4 4,4L10,4L12,6L19,6C20.097,6 21,6.903 21,8L4,8L4,18L6.14,10L23.21,10L20.93,18.5C20.7,19.37 19.92,20 19,20Z" style="fill:rgb(56,142,60);fill-rule:nonzero;"/>
    <g transform="matrix(0.848547,0,0,0.848547,-2.30283,-3.29563)">
        <path d="M19.146,30.989C19.076,30.989 19.007,30.98 18.939,30.964C18.42,30.812 18.102,30.28 18.213,29.751L20.922,15.32C20.971,15.041 21.131,14.795 21.366,14.637C21.572,14.501 21.826,14.457 22.066,14.515C22.585,14.667 22.903,15.199 22.793,15.728L20.077,30.16C20.029,30.438 19.869,30.684 19.635,30.841C19.49,30.937 19.32,30.988 19.146,30.989L19.146,30.989Z" style="fill:rgb(129,199,132);fill-rule:nonzero;"/>
    </g>
    <g transform="matrix(0.848547,0,0,0.848547,-2.30283,-3.29563)">
        <path d="M24.578,28.944L24.51,28.944C24.244,28.92 24,28.783 23.842,28.567C23.525,28.135 23.568,27.531 23.942,27.148L28.6,22.595L23.962,18.356C23.577,17.984 23.517,17.381 23.821,16.94C23.973,16.718 24.215,16.572 24.482,16.54C24.741,16.512 25,16.599 25.191,16.777L30.661,21.777C31.047,22.149 31.109,22.751 30.805,23.193C30.763,23.252 30.716,23.307 30.663,23.356L25.216,28.68C25.046,28.848 24.817,28.943 24.578,28.944L24.578,28.944Z" style="fill:rgb(129,199,132);fill-rule:nonzero;"/>
    </g>
    <g transform="matrix(0.848547,0,0,0.848547,-2.30283,-3.29563)">
        <path d="M16.423,28.947C16.183,28.945 15.954,28.849 15.784,28.68L10.332,23.353C10.282,23.307 10.238,23.256 10.2,23.2C9.894,22.76 9.954,22.157 10.341,21.786L15.812,16.786C15.999,16.608 16.255,16.521 16.512,16.548C16.781,16.579 17.023,16.725 17.177,16.948C17.482,17.389 17.423,17.992 17.037,18.365L12.4,22.6L17.059,27.151C17.436,27.533 17.479,28.139 17.159,28.57C17.001,28.786 16.757,28.924 16.49,28.947L16.423,28.947Z" style="fill:rgb(129,199,132);fill-rule:nonzero;"/>
    </g>
</svg>
